X: 35
T:Molly of Lough Erne Shore
M:3/4
L:1/8
S:James Whiteside manuscript
R:Air
K:G
"Andante"AB|c2 B2 c2|A2 G2 G2|A2 B2 c2|d4 fg|
a2 g2 a2|=f2 e2 d2|d2 e2 A2|A4 f2|
a2 g2 a2|f2 e2 d2|d2 c2 A2|^f4 ge|
d2 A2 B2|c2 A2 G2|A2 B2 c2|d4||

